public/icons/logout.svg

<svg width="19" height="18" viewBox="0 0 19 18" fill="none" xmlns="http://www.w3.org/2000/svg">
<path d="M5.25008 2.33317C5.71032 2.33317 6.08342 1.96007 6.08342 1.49984C6.08342 1.0396 5.71032 0.666504 5.25008 0.666504H4.00008C2.15913 0.666504 0.666748 2.15889 0.666748 3.99984V13.9998C0.666748 15.8408 2.15913 17.3332 4.00008 17.3332H5.25008C5.71032 17.3332 6.08341 16.9601 6.08341 16.4998C6.08341 16.0396 5.71032 15.6665 5.25008 15.6665H4.00008C3.07961 15.6665 2.33341 14.9203 2.33341 13.9998L2.33342 3.99984C2.33342 3.07936 3.07961 2.33317 4.00008 2.33317H5.25008Z" fill="black"/>
<path d="M17.9227 9.58909C18.2481 9.26366 18.2481 8.73602 17.9227 8.41058L14.5893 5.07725C14.2639 4.75181 13.7363 4.75181 13.4108 5.07725C13.0854 5.40269 13.0854 5.93032 13.4108 6.25576L15.3216 8.1665L5.66675 8.1665C5.20651 8.1665 4.83341 8.5396 4.83341 8.99984C4.83341 9.46007 5.20651 9.83317 5.66675 9.83317L15.3216 9.83317L13.4108 11.7439C13.0854 12.0694 13.0854 12.597 13.4108 12.9224C13.7363 13.2479 14.2639 13.2479 14.5893 12.9224L17.9227 9.58909Z" fill="black"/>
</svg>

<svg xmlns="http://www.w3.org/2000/svg" width="19" height="18" fill="none"><path fill="#000" d="M5.25 2.333a.833.833 0 1 0 0-1.666H4A3.333 3.333 0 0 0 .667 4v10A3.333 3.333 0 0 0 4 17.333h1.25a.833.833 0 0 0 0-1.666H4c-.92 0-1.667-.747-1.667-1.667V4c0-.92.747-1.667 1.667-1.667z"/><path fill="#000" d="M17.923 9.59a.833.833 0 0 0 0-1.18l-3.334-3.333a.833.833 0 1 0-1.178 1.179l1.91 1.91H5.668a.833.833 0 0 0 0 1.667h9.655l-1.911 1.91a.833.833 0 0 0 1.178 1.18z"/></svg>
